!!!SOCIAL_FUNCTION: drunken-man dance songs
!!!PDT:	1943
!!!LING_GROUP: Muskogean
!!!LANG: Non-Tone
Specific Region: Oklahoma, California, Mississippi, Louisiana, Texas, Alabama
!!!REG: Southeast
!!!COM: Anon.
!!!OTL: Drunken-man Dance Song (a)
!!!ODT: <1933//
!!!MPN: Robert Henry
!!!MLC: Philadelphia, Mississippi, United States of America
!! Song was recorded in January 1933.
!!!AGN: monody
!!!AMT: irregular
!!!RWG: Transcribed pitches, durations, and meters are only approximate.
**kern
*ICvox
*Imale
*clefF4
*k[f#]
*M2/4
*MM112
=1-
4B
8B
8A
=2
8A
8G
4G
=3
4.B
8A
=4
2G
*M3/4
*MM100
=5
4B
8G
8A
12G
12E
12E
*M2/4
=6
4G
8G
8G
=7
*MM112
4B
8A
8A
=8
8A
8G
4r
*M3/4
*MM100
=9
4G
8G
8A
12G
12E
12E
=10
4G
8G
8G
4r
=11
4G
8G
8A
8.G
16E
=12
4G
8G
8G
4r
=13
*MM112
4B
8G
8A
12G
12G
12G
=14
!! return to beginning
4.B
8A
=15
2G
*M3/4
*MM100
=16
4B
8G
8A
12G
12E
12E
*M2/4
=17
4G
8G
8G
=18
*MM112
4B
8A
8A
=19
8A
8G
4r
*M3/4
*MM100
=20
4G
8G
8A
12G
12E
12E
=21
4G
8G
8G
4r
==
*-
!!!CNT: Choctaw
!!!TXO: Choctaw
!!!OCY: United States
!!!OCL: Frances Densmore
!!!YOR: Frances Densmore, "Choctaw Music"
!!!YOR: Bulletin 136, page 144, No. 21
!!!PPR: Smithsonian Institution, Bureau of American Ethnology
!!!PPR: Government Printing Office
!!!PDT: 1943
!!!PPP: Washington, DC, United States of America
!!!YEC: Electronic Copyright 2000 David Huron
!!!YER: August 2000
!!!YEN: United States of America
!!!ENC: David Huron
!!!RDT: August 27, 2000
!!!EEV: Release 1.0
!!!AIN: vox
